Suru++-Ubuntu/apps/symbolic/ccsm-symbolic.svg

<svg width="16" height="16" version="1.1" xmlns="http://www.w3.org/2000/svg">
 <defs>
  <filter id="filter7554" style="color-interpolation-filters:sRGB">
   <feBlend in2="BackgroundImage" mode="darken"/>
  </filter>
 </defs>
 <g transform="translate(-324.86451,154.86049)" style="enable-background:new;fill:#808080;filter:url(#filter7554)">
  <path transform="translate(324.86451,-154.86049)" d="m7.0019531 1.9980469v0.0039062h-5s-1 0-1 1v9.9999999c0 1 1 1 1 1h5.0039063v-0.003906h2.9960936 0.003906l3.996094 0.003906c1.00336 9.8e-4 1-1 1-1v-9.9999999s3e-3 -0.99902-1-1l-3.996094-0.0039062h-0.003906-2.9999999zm-4.9960937 1h1.9453125 3.0507812 3.0039059 0.996094 3.003906v10h-3.003906-0.996094-0.490234l-3.0878906-4.7207032h2.9746094l-5.4023438-4.2773438v6.884766l1.8066406-2.2617191 1.8417969 4.3750001h-0.6464844-3.0507812-1.9453125v-10z" style="fill:#808080"/>
 </g>
</svg>

<svg xmlns="http://www.w3.org/2000/svg" width="16" height="16" version="1.1">
 <defs>
  <filter id="filter7554" style="color-interpolation-filters:sRGB">
   <feBlend in2="BackgroundImage" mode="darken"/>
  </filter>
 </defs>
 <g style="filter:url(#filter7554);enable-background:new;fill:#808080" transform="translate(-324.86451,154.86049)">
  <path style="fill:#808080" d="M 7.0019531 1.9980469 L 7.0019531 2.0019531 L 2.0019531 2.0019531 C 2.0019531 2.0019531 1.0019531 2.0019531 1.0019531 3.0019531 L 1.0019531 13.001953 C 1.0019531 14.001953 2.0019531 14.001953 2.0019531 14.001953 L 7.0058594 14.001953 L 7.0058594 13.998047 L 10.001953 13.998047 L 10.005859 13.998047 L 14.001953 14.001953 C 15.005313 14.002933 15.001953 13.001953 15.001953 13.001953 L 15.001953 3.0019531 C 15.001953 3.0019531 15.004953 2.0029331 14.001953 2.0019531 L 10.005859 1.9980469 L 10.001953 1.9980469 L 7.0019531 1.9980469 z M 2.0058594 2.9980469 L 3.9511719 2.9980469 L 7.0019531 2.9980469 L 10.005859 2.9980469 L 11.001953 2.9980469 L 14.005859 2.9980469 L 14.005859 12.998047 L 11.001953 12.998047 L 10.005859 12.998047 L 9.515625 12.998047 L 6.4277344 8.2773438 L 9.4023438 8.2773438 L 4 4 L 4 10.884766 L 5.8066406 8.6230469 L 7.6484375 12.998047 L 7.0019531 12.998047 L 3.9511719 12.998047 L 2.0058594 12.998047 L 2.0058594 2.9980469 z" transform="translate(324.86451,-154.86049)"/>
 </g>
</svg>
